X:237
T:Old Concertina Reel, The
R:reel
Z:transcribed by Dave Marshall
M:C|
K:Edor
|: Beed BcdA | ~B2AF EFGA | Beed BcdA |1 ~B2AF DEFA :|2 ~B2AF D4 |
| Beec d~f3 | edBc dBA2 | Beec d~f3 | edBc d4 |
Beec d~f3 | edBc dBA2 | ~g3e ~f3d | edBd e4 |
